src/public/img/github.svg

<svg width="84" height="30" viewBox="0 0 84 30" fill="none" xmlns="http://www.w3.org/2000/svg">
<g clip-path="url(#clip0)">
<path d="M34.5893 22.5226H34.552C34.5688 22.5226 34.58 22.5413 34.5968 22.5431H34.608L34.5893 22.5245V22.5226ZM34.5968 22.5431C34.4232 22.545 33.9864 22.6365 33.5253 22.6365C32.0693 22.6365 31.5653 21.9645 31.5653 21.0871V15.2426H34.5333C34.7013 15.2426 34.832 15.0933 34.832 14.8879V11.7146C34.832 11.5466 34.6827 11.3973 34.5333 11.3973H31.5653V7.4586C31.5653 7.30927 31.472 7.21594 31.304 7.21594H27.272C27.104 7.21594 27.0107 7.30927 27.0107 7.4586V11.5093C27.0107 11.5093 24.976 12.0133 24.8453 12.0319C24.696 12.0693 24.6027 12.1999 24.6027 12.3493V14.8879C24.6027 15.0933 24.752 15.2426 24.92 15.2426H26.992V21.3653C26.992 25.9199 30.1653 26.3866 32.3307 26.3866C33.32 26.3866 34.5147 26.0693 34.7013 25.9759C34.8133 25.9386 34.8693 25.8079 34.8693 25.6773V22.8773C34.8719 22.7979 34.8458 22.7202 34.7957 22.6585C34.7457 22.5968 34.675 22.5551 34.5968 22.5413V22.5431ZM78.8293 18.4346C78.8293 15.0559 77.4667 14.6079 76.0293 14.7573C74.9093 14.8319 74.0133 15.3919 74.0133 15.3919V21.9626C74.0133 21.9626 74.928 22.5973 76.2907 22.6346C78.2133 22.6906 78.8293 21.9999 78.8293 18.4346ZM83.3653 18.1359C83.3653 24.5386 81.2933 26.3679 77.672 26.3679C74.6107 26.3679 72.968 24.8186 72.968 24.8186C72.968 24.8186 72.8933 25.6773 72.8 25.7893C72.744 25.9013 72.6507 25.9386 72.5387 25.9386H69.776C69.5893 25.9386 69.4213 25.7893 69.4213 25.6213L69.4587 4.8826C69.4587 4.7146 69.608 4.56527 69.776 4.56527H73.752C73.92 4.56527 74.0693 4.7146 74.0693 4.8826V11.9199C74.0693 11.9199 75.6 10.9306 77.84 10.9306L77.8213 10.8933C80.0613 10.8933 83.3653 11.7333 83.3653 18.1359ZM67.088 11.3973H63.168C62.9627 11.3973 62.8507 11.5466 62.8507 11.7519V21.9066C62.8507 21.9066 61.824 22.6346 60.424 22.6346C59.024 22.6346 58.6133 21.9999 58.6133 20.5999V11.7333C58.6133 11.5653 58.464 11.4159 58.296 11.4159H54.3013C54.1333 11.4159 53.984 11.5653 53.984 11.7333V21.2719C53.984 25.3786 56.28 26.4053 59.4347 26.4053C62.0293 26.4053 64.1387 24.9679 64.1387 24.9679C64.1387 24.9679 64.232 25.6959 64.288 25.8079C64.3253 25.9013 64.456 25.9759 64.5867 25.9759H67.088C67.2933 25.9759 67.4053 25.8266 67.4053 25.6586L67.4427 11.7146C67.4427 11.5466 67.2933 11.3973 67.088 11.3973ZM22.848 11.3786H18.872C18.704 11.3786 18.5547 11.5466 18.5547 11.7519V25.4533C18.5547 25.8266 18.7973 25.9573 19.1147 25.9573H22.6987C23.072 25.9573 23.1653 25.7893 23.1653 25.4533V11.6959C23.1653 11.5279 23.016 11.3786 22.848 11.3786ZM20.888 5.06927C19.4507 5.06927 18.312 6.20794 18.312 7.64527C18.312 9.0826 19.4507 10.2213 20.888 10.2213C22.288 10.2213 23.4267 9.0826 23.4267 7.64527C23.4267 6.20794 22.288 5.06927 20.888 5.06927ZM51.6693 4.6026H47.7307C47.5627 4.6026 47.4133 4.75193 47.4133 4.91993V12.5546H41.2347V4.91993C41.2347 4.75193 41.0853 4.6026 40.9173 4.6026H36.9413C36.7733 4.6026 36.624 4.75193 36.624 4.91993V25.6586C36.624 25.8266 36.792 25.9759 36.9413 25.9759H40.9173C41.0853 25.9759 41.2347 25.8266 41.2347 25.6586V16.7919H47.4133L47.376 25.6586C47.376 25.8266 47.5253 25.9759 47.6933 25.9759H51.6693C51.8373 25.9759 51.9867 25.8266 51.9867 25.6586V4.91993C51.9867 4.75193 51.8373 4.6026 51.6693 4.6026ZM16.4453 13.7866V24.5013C16.4453 24.5759 16.4267 24.7066 16.3333 24.7439C16.3333 24.7439 14 26.4053 10.1547 26.4053C5.50667 26.4053 0 24.9493 0 15.3546C0 5.75993 4.816 3.78127 9.52 3.79993C13.5893 3.79993 15.232 4.7146 15.4933 4.8826C15.568 4.97593 15.6053 5.0506 15.6053 5.14394L14.8213 8.4666C14.8213 8.6346 14.6533 8.83994 14.448 8.78394C13.776 8.5786 12.768 8.16794 10.3973 8.16794C7.65333 8.16794 4.704 8.95193 4.704 15.1306C4.704 21.3093 7.504 22.0373 9.52 22.0373C11.2373 22.0373 11.8533 21.8319 11.8533 21.8319V17.5386H9.10933C8.904 17.5386 8.75467 17.3893 8.75467 17.2213V13.7866C8.75467 13.6186 8.904 13.4693 9.10933 13.4693H16.0907C16.296 13.4693 16.4453 13.6186 16.4453 13.7866Z" fill="#24292E"/>
</g>
<defs>
<clipPath id="clip0">
<rect width="84" height="30" fill="white"/>
</clipPath>
</defs>
</svg>

<svg xmlns="http://www.w3.org/2000/svg" width="84" height="30" fill="none">
  <g clip-path="url(#a)">
    <path fill="#24292E" d="M34.59 22.523h-.038c.017 0 .028.018.045.02h.011l-.019-.018v-.002Zm.007.02c-.174.002-.61.094-1.072.094-1.456 0-1.96-.672-1.96-1.55v-5.844h2.968c.168 0 .299-.15.299-.355v-3.173c0-.168-.15-.318-.299-.318h-2.968V7.46c0-.15-.093-.243-.261-.243h-4.032c-.168 0-.261.093-.261.243v4.05s-2.035.504-2.166.523a.32.32 0 0 0-.242.317v2.539c0 .205.149.355.317.355h2.072v6.122c0 4.555 3.173 5.022 5.339 5.022.989 0 2.184-.318 2.37-.411.112-.037.168-.168.168-.299v-2.8a.33.33 0 0 0-.272-.336v.002Zm44.232-4.108c0-3.38-1.362-3.827-2.8-3.678a4.846 4.846 0 0 0-2.016.635v6.57s.915.635 2.278.673c1.922.056 2.538-.635 2.538-4.2Zm4.536-.3c0 6.404-2.072 8.233-5.693 8.233-3.061 0-4.704-1.55-4.704-1.55s-.075.86-.168.971c-.056.112-.15.15-.261.15h-2.763c-.187 0-.355-.15-.355-.318l.038-20.738c0-.168.149-.318.317-.318h3.976c.168 0 .317.15.317.318v7.037s1.531-.99 3.771-.99l-.019-.037c2.24 0 5.544.84 5.544 7.243Zm-16.277-6.738h-3.92c-.205 0-.317.15-.317.355v10.155s-1.027.728-2.427.728c-1.4 0-1.81-.635-1.81-2.035v-8.867a.327.327 0 0 0-.318-.317h-3.995a.327.327 0 0 0-.317.317v9.539c0 4.107 2.296 5.133 5.45 5.133 2.595 0 4.705-1.437 4.705-1.437s.093.728.149.84c.037.093.168.168.299.168h2.501c.205 0 .317-.15.317-.317l.038-13.944c0-.168-.15-.318-.355-.318Zm-44.24-.018h-3.976c-.168 0-.317.168-.317.373v13.701c0 .374.242.504.56.504h3.584c.373 0 .466-.168.466-.504V11.696a.327.327 0 0 0-.317-.317Zm-1.96-6.31a2.557 2.557 0 0 0-2.576 2.576 2.558 2.558 0 0 0 2.576 2.576c1.4 0 2.539-1.138 2.539-2.576 0-1.437-1.139-2.576-2.539-2.576Zm30.781-.466h-3.938a.327.327 0 0 0-.318.317v7.635h-6.178V4.92a.327.327 0 0 0-.318-.317h-3.976a.327.327 0 0 0-.317.317v20.739c0 .168.168.317.317.317h3.976c.168 0 .318-.15.318-.317v-8.867h6.178l-.037 8.867c0 .168.15.317.317.317h3.976c.168 0 .318-.15.318-.317V4.919a.327.327 0 0 0-.318-.316Zm-35.224 9.184V24.5c0 .075-.018.206-.112.243 0 0-2.333 1.661-6.178 1.661C5.507 26.405 0 24.95 0 15.355 0 5.76 4.816 3.78 9.52 3.8c4.07 0 5.712.915 5.973 1.083.075.093.112.168.112.26l-.784 3.324c0 .168-.168.373-.373.317-.672-.205-1.68-.616-4.05-.616-2.745 0-5.694.784-5.694 6.963 0 6.178 2.8 6.906 4.816 6.906 1.717 0 2.333-.205 2.333-.205v-4.293H9.11c-.205 0-.354-.15-.354-.318v-3.434c0-.168.149-.318.354-.318h6.982c.205 0 .354.15.354.318Z"/>
  </g>
  <defs>
    <clipPath id="a">
      <path fill="#fff" d="M0 0h84v30H0z"/>
    </clipPath>
  </defs>
</svg>
